public/icons/icon/font-serif.svg

<svg width="30" height="30" viewBox="0 0 30 30" fill="none" xmlns="http://www.w3.org/2000/svg">
<path d="M0 22.0031H1.26205L6.70619 6.21509H9.79945L15.2436 22.0031H16.5056V23.4879H9.65098V22.0031H11.7049L10.4181 18.118H4.4543L3.1675 22.0031H5.22143V23.4879H0V22.0031ZM4.89973 16.559H9.97268L7.49807 8.88766H7.37434L4.89973 16.559Z" fill="black"/>
<path d="M21.6853 23.7848C20.349 23.7848 19.3592 23.4631 18.7158 22.8197C18.0724 22.1763 17.7507 21.2855 17.7507 20.1471C17.7507 18.8933 18.2044 17.9447 19.1117 17.3013C20.0356 16.6579 21.4708 16.3362 23.4175 16.3362H25.1745V14.7772C25.1745 13.7709 24.9683 13.012 24.5559 12.5006C24.1434 11.9727 23.467 11.7087 22.5267 11.7087C21.8008 11.7087 21.2399 11.816 20.8439 12.0304V12.1294C21.0089 12.2284 21.1656 12.3851 21.3141 12.5996C21.4791 12.7975 21.5616 13.078 21.5616 13.4409C21.5616 13.9194 21.4131 14.3153 21.1162 14.6288C20.8357 14.9257 20.415 15.0742 19.8541 15.0742C19.3757 15.0742 18.9797 14.9175 18.6663 14.604C18.3693 14.2906 18.2209 13.8781 18.2209 13.3667C18.2209 12.9708 18.3281 12.5913 18.5426 12.2284C18.7735 11.8489 19.1117 11.519 19.5571 11.2385C20.0026 10.9416 20.547 10.7106 21.1904 10.5457C21.8503 10.3642 22.6092 10.2734 23.467 10.2734C25.1168 10.2734 26.3541 10.6529 27.1789 11.4118C28.0038 12.1542 28.4163 13.2017 28.4163 14.5545V22.0278H30V23.2651C29.7525 23.4301 29.4226 23.5539 29.0102 23.6363C28.5977 23.7353 28.177 23.7848 27.7481 23.7848C26.9232 23.7848 26.3293 23.5868 25.9664 23.1909C25.6034 22.7785 25.422 22.2588 25.422 21.6319V21.5577H25.2982C25.1828 21.8381 25.0343 22.1103 24.8528 22.3743C24.6713 22.6382 24.4404 22.8775 24.1599 23.0919C23.8795 23.2899 23.533 23.4549 23.1206 23.5868C22.7246 23.7188 22.2462 23.7848 21.6853 23.7848ZM22.9474 21.8051C23.6073 21.8051 24.1434 21.6484 24.5559 21.335C24.9683 21.0215 25.1745 20.4936 25.1745 19.7512V17.6725H23.764C22.7741 17.6725 22.0648 17.854 21.6358 18.2169C21.2234 18.5634 21.0172 19.0666 21.0172 19.7265V20.1719C21.0172 20.7328 21.1904 21.1452 21.5368 21.4092C21.8998 21.6731 22.37 21.8051 22.9474 21.8051Z" fill="black"/>
</svg>

<svg xmlns="http://www.w3.org/2000/svg" width="30" height="30" fill="none"><path fill="#000" d="M0 22.003h1.262L6.706 6.215H9.8l5.445 15.788h1.262v1.485H9.65v-1.485h2.054l-1.287-3.885H4.454l-1.286 3.885H5.22v1.485H0v-1.485Zm4.9-5.444h5.073L7.498 8.888h-.124L4.9 16.559ZM21.685 23.785c-1.336 0-2.326-.322-2.97-.965-.643-.644-.964-1.535-.964-2.673 0-1.254.453-2.202 1.36-2.846.925-.643 2.36-.965 4.306-.965h1.757v-1.559c0-1.006-.206-1.765-.618-2.276-.413-.528-1.089-.792-2.03-.792-.725 0-1.286.107-1.682.321v.1c.165.098.322.255.47.47.165.197.248.478.248.84 0 .48-.149.875-.446 1.189-.28.297-.701.445-1.262.445-.478 0-.874-.156-1.188-.47-.297-.313-.445-.726-.445-1.237 0-.396.107-.776.322-1.139.23-.38.569-.709 1.014-.99.446-.296.99-.527 1.633-.692.66-.182 1.42-.273 2.277-.273 1.65 0 2.887.38 3.712 1.139.825.742 1.237 1.79 1.237 3.143v7.473H30v1.237c-.247.165-.577.289-.99.371a5.39 5.39 0 0 1-1.262.149c-.825 0-1.419-.198-1.782-.594-.363-.412-.544-.932-.544-1.56v-.073h-.124a4.39 4.39 0 0 1-.445.816 3.159 3.159 0 0 1-.693.718c-.28.198-.627.363-1.04.495-.395.132-.874.198-1.435.198Zm1.262-1.98c.66 0 1.196-.157 1.609-.47.412-.314.618-.841.618-1.584v-2.079h-1.41c-.99 0-1.7.182-2.128.545-.413.346-.619.85-.619 1.51v.445c0 .56.173.973.52 1.237.363.264.833.396 1.41.396Z"/></svg>
